X: 25380
T: March For Suzie
R: polka
M: 2/4
K: Dmajor
|dB|:A>B AF|AB df|e>f ed|B2 d/e/f|g>g fd|ed Bd|BA A<B|AB AF|
A>B AF|AB df|e>f ed|B2 d/e/f|g>g fd|ed Bd|BA B<d|1 d2 dB:|2 d4||
|:a>f ed|ed Bd|BA B<d|e2 ef|g>g fd|ed Bd|BA A<B|AB AF|
A>B AF|AB df|e>f ed|B2 d/e/f|g>g fd|ed Bd|BA B<d|d4:|

